public/images/requests.svg

<svg width="21.5" height="21.5" fill="none" xmlns="http://www.w3.org/2000/svg"><path d="M8.24 1.33c1.56-.78 3.45-.78 5.01 0l6.71 3.4c1.05.53 1.05 1.9 0 2.43l-6.71 3.4c-1.56.78-3.45.78-5.01 0l-6.71-3.4c-1.05-.53-1.05-1.9 0-2.43l6.71-3.4zm8.86 6.94 2.36 1.15.5.25c1.05.53 1.05 1.91 0 2.44l-6.71 3.39c-1.56.79-3.45.79-5.01 0l-6.71-3.39c-1.05-.53-1.05-1.91 0-2.44l.5-.25 2.23-1.15m13.35 5.12 2.15.97c1.11.51 1.14 1.92.06 2.47l-6.57 3.33c-1.56.78-3.45.78-5.01 0l-6.48-3.28c-1.1-.56-1.03-2.01.11-2.49l2.39-1" stroke="#1B31FF" stroke-width="1.5"/></svg>

<svg width="21.500000" height="21.500000" viewBox="0 0 21.5 21.5" fill="none" xmlns="http://www.w3.org/2000/svg" xmlns:xlink="http://www.w3.org/1999/xlink">
	<desc>
			Created with Pixso.
	</desc>
	<defs/>
	<path id="Vector" d="M8.24 1.33C9.8 0.55 11.69 0.55 13.25 1.33L19.96 4.73C21.01 5.26 21.01 6.63 19.96 7.16L13.25 10.56C11.69 11.34 9.8 11.34 8.24 10.56L1.53 7.16C0.48 6.63 0.48 5.26 1.53 4.73L8.24 1.33ZM17.1 8.27L19.46 9.42L19.96 9.67C21.01 10.2 21.01 11.58 19.96 12.11L13.25 15.5C11.69 16.29 9.8 16.29 8.24 15.5L1.53 12.11C0.48 11.58 0.48 10.2 1.53 9.67L2.03 9.42L4.26 8.27M17.61 13.39L19.76 14.36C20.87 14.87 20.9 16.28 19.82 16.83L13.25 20.16C11.69 20.94 9.8 20.94 8.24 20.16L1.76 16.88C0.66 16.32 0.73 14.87 1.87 14.39L4.26 13.39" stroke="#1B31FF" stroke-opacity="1.000000" stroke-width="1.500000"/>
</svg>
